actions/scalable/preflight-verifier.svg

<svg height="22" width="22" xmlns="http://www.w3.org/2000/svg" xmlns:sodipodi="http://sodipodi.sourceforge.net/DTD/sodipodi-0.dtd" xmlns:inkscape="http://www.inkscape.org/namespaces/inkscape">
 <g transform="matrix(1 0 0 1 -551.29 -607.65)">
  <path d="m4 3v16h9v-1h-8v-14h12v9h1v-10h-14zm2 2v5h5v-5h-5zm6 0v1h4v-1h-4zm0 2v1h4v-1h-4zm0 2v1h4v-1h-4zm-6 2v1h10v-1h-10zm0 2v1h7v-1h-7zm0 2v1h7v-1h-7z" fill="#4d4d4d" transform="matrix(1 0 0 1 551.29 607.65)"/>
  <path d="m571.73 620.65-4.5918 4.5918-1.1465-1.1465-0.70703 0.70703 1.8457 1.8477 0.006-0.008 0.008 0.008 5.293-5.293-0.70703-0.70703z" fill="#4d4d4d"/>
 </g>
</svg>

<?xml version="1.0" encoding="UTF-8" standalone="no"?>
<!-- Created with Inkscape (http://www.inkscape.org/) -->

<svg
   xmlns:dc="http://purl.org/dc/elements/1.1/"
   xmlns:cc="http://creativecommons.org/ns#"
   xmlns:rdf="http://www.w3.org/1999/02/22-rdf-syntax-ns#"
   xmlns:svg="http://www.w3.org/2000/svg"
   xmlns="http://www.w3.org/2000/svg"
   xmlns:sodipodi="http://sodipodi.sourceforge.net/DTD/sodipodi-0.dtd"
   xmlns:inkscape="http://www.inkscape.org/namespaces/inkscape"
   width="22"
   height="22"
   id="svg3760"
   version="1.1"
   inkscape:version="0.48+devel r"
   sodipodi:docname="preflight-verifier.svg">
  <defs
     id="defs3762" />
  <sodipodi:namedview
     id="base"
     pagecolor="#ffffff"
     bordercolor="#666666"
     borderopacity="1.0"
     inkscape:pageopacity="0.0"
     inkscape:pageshadow="2"
     inkscape:zoom="22.627417"
     inkscape:cx="14.142604"
     inkscape:cy="13.39757"
     inkscape:document-units="px"
     inkscape:current-layer="layer1"
     showgrid="true"
     fit-margin-top="0"
     fit-margin-left="0"
     fit-margin-right="0"
     fit-margin-bottom="0"
     inkscape:window-width="1366"
     inkscape:window-height="666"
     inkscape:window-x="-2"
     inkscape:window-y="25"
     inkscape:window-maximized="1"
     inkscape:showpageshadow="false"
     showguides="true">
    <inkscape:grid
       type="xygrid"
       id="grid4106"
       originx="-0.99998557px"
       originy="-1.0000252px" />
    <sodipodi:guide
       position="2.00001,19.99997"
       orientation="0,18"
       id="guide4229" />
    <sodipodi:guide
       position="20.00001,19.99997"
       orientation="18,0"
       id="guide4231" />
    <sodipodi:guide
       position="20.00001,1.99997"
       orientation="0,-18"
       id="guide4233" />
    <sodipodi:guide
       position="2.00001,1.99997"
       orientation="-18,0"
       id="guide4235" />
    <sodipodi:guide
       position="19.00001,2.99997"
       orientation="0,-16"
       id="guide4241" />
    <sodipodi:guide
       position="2.9999956,18.999992"
       orientation="6,0"
       id="guide4155" />
    <sodipodi:guide
       position="18.999996,12.999992"
       orientation="-6,0"
       id="guide4167" />
    <sodipodi:guide
       position="18.999996,18.999992"
       orientation="0,-6"
       id="guide4169" />
  </sodipodi:namedview>
  <metadata
     id="metadata3765">
    <rdf:RDF>
      <cc:Work
         rdf:about="">
        <dc:format>image/svg+xml</dc:format>
        <dc:type
           rdf:resource="http://purl.org/dc/dcmitype/StillImage" />
        <dc:title />
      </cc:Work>
    </rdf:RDF>
  </metadata>
  <g
     inkscape:label="Capa 1"
     inkscape:groupmode="layer"
     id="layer1"
     transform="translate(-551.28571,-607.64788)">
    <path
       style="opacity:1;fill:#666666;fill-opacity:1;stroke:none;stroke-width:2.79999995;stroke-miterlimit:4;stroke-dasharray:none;stroke-opacity:0.55026455"
       d="M 4 3 L 4 19 L 13 19 L 13 18 L 5 18 L 5 4 L 17 4 L 17 13 L 18 13 L 18 3 L 4 3 z M 6 5 L 6 10 L 11 10 L 11 5 L 6 5 z M 12 5 L 12 6 L 16 6 L 16 5 L 12 5 z M 12 7 L 12 8 L 16 8 L 16 7 L 12 7 z M 12 9 L 12 10 L 16 10 L 16 9 L 12 9 z M 6 11 L 6 12 L 16 12 L 16 11 L 6 11 z M 6 13 L 6 14 L 13 14 L 13 13 L 6 13 z M 6 15 L 6 16 L 13 16 L 13 15 L 6 15 z "
       transform="translate(551.28571,607.64788)"
       id="rect4144" />
    <path
       inkscape:connector-curvature="0"
       style="opacity:1;fill:#666666;fill-opacity:1;stroke:none;stroke-width:2.79999995;stroke-miterlimit:4;stroke-dasharray:none;stroke-opacity:0.55026455"
       d="m 571.73102,620.64788 -4.5918,4.5918 -1.14648,-1.14649 -0.70703,0.70703 1.8457,1.84766 0.006,-0.008 0.008,0.008 5.29297,-5.29297 -0.70703,-0.70703 z"
       id="rect4166" />
  </g>
</svg>
